dist/img/youtube.svg

<svg width="32" height="32" viewBox="0 0 32 32" fill="none" xmlns="http://www.w3.org/2000/svg">
<g opacity="0.4">
<path d="M30.3662 8.50165C30.0205 7.21643 29.0072 6.20331 27.7222 5.85724C25.3746 5.2149 15.984 5.2149 15.984 5.2149C15.984 5.2149 6.59381 5.2149 4.24622 5.83289C2.9859 6.17859 1.94788 7.21661 1.60217 8.50165C0.984375 10.8491 0.984375 15.7173 0.984375 15.7173C0.984375 15.7173 0.984375 20.61 1.60217 22.9329C1.94824 24.218 2.96118 25.2311 4.2464 25.5771C6.61853 26.2197 15.9844 26.2197 15.9844 26.2197C15.9844 26.2197 25.3746 26.2197 27.7222 25.6017C29.0074 25.2558 30.0205 24.2427 30.3666 22.9576C30.9842 20.61 30.9842 15.742 30.9842 15.742C30.9842 15.742 31.0089 10.8491 30.3662 8.50165ZM12.9943 20.2147V11.2198L20.803 15.7173L12.9943 20.2147Z" fill="white"/>
</g>
</svg>

<svg width="32" height="32" fill="none" xmlns="http://www.w3.org/2000/svg"><path d="M30.366 8.502a3.758 3.758 0 0 0-2.644-2.645c-2.347-.642-11.738-.642-11.738-.642s-9.39 0-11.738.618a3.835 3.835 0 0 0-2.644 2.669c-.618 2.347-.618 7.215-.618 7.215s0 4.893.618 7.216a3.759 3.759 0 0 0 2.644 2.644c2.373.643 11.738.643 11.738.643s9.39 0 11.738-.618a3.759 3.759 0 0 0 2.645-2.644c.617-2.348.617-7.216.617-7.216s.025-4.893-.618-7.24ZM12.994 20.215V11.22l7.809 4.497-7.809 4.498Z" fill="#fff" opacity=".4"/></svg>
